X: 1
T: the Graelynda Strathspey
C: Maggie Keppie
R: strathspey
M: 4/4
L: 1/16
K: A
e4 \
| "A"A3B c3d e4 A4 \
| "G"B=G3 G3A BG3 G3B \
| "A"A3B c3d ec3 c3e \
| "G"d=cBA =GB3 "A"A4 e4 |
| "A"A3B c3d e3c (3A2B2c2 \
| "D"d3f e3c "E7"B3e f3g \
| "A"a7 c "Bm"B3f "E7"e3d \
| "A"c4 A4 A4 (3e2f2g2 |
| "A"a7 g a4 e4 \
| "D"f3d df3 "E7"e6- (3efg \
| "A"a7 g a3e ce3 \
| "Bm"d3B "E7"e3d "A"cA3 A2 (3efg |
| "A"a3e f3c e4 ce3 \
| "G"d=cBA =G3A BG3 G3B \
| "A"A3B c3d e3a "D"(3f2e2d2 \
| "E7"cA3 A3B "A"A4 |]
